Numix-GalliumOS/16/categories/applications-photography.svg

<?xml version="1.0" encoding="UTF-8" standalone="no"?>
<svg
   xmlns:dc="http://purl.org/dc/elements/1.1/"
   xmlns:cc="http://creativecommons.org/ns#"
   xmlns:rdf="http://www.w3.org/1999/02/22-rdf-syntax-ns#"
   xmlns:svg="http://www.w3.org/2000/svg"
   xmlns="http://www.w3.org/2000/svg"
   xmlns:sodipodi="http://sodipodi.sourceforge.net/DTD/sodipodi-0.dtd"
   xmlns:inkscape="http://www.inkscape.org/namespaces/inkscape"
   width="16"
   height="16"
   viewBox="0 0 12.8 12.8"
   id="svg2"
   version="1.1"
   inkscape:version="0.91 r"
   sodipodi:docname="applications-photography.svg">
  <metadata
     id="metadata18">
    <rdf:RDF>
      <cc:Work
         rdf:about="">
        <dc:format>image/svg+xml</dc:format>
        <dc:type
           rdf:resource="http://purl.org/dc/dcmitype/StillImage" />
        <dc:title />
      </cc:Work>
    </rdf:RDF>
  </metadata>
  <defs
     id="defs16" />
  <sodipodi:namedview
     pagecolor="#ffffff"
     bordercolor="#666666"
     borderopacity="1"
     objecttolerance="10"
     gridtolerance="10"
     guidetolerance="10"
     inkscape:pageopacity="0"
     inkscape:pageshadow="2"
     inkscape:window-width="1680"
     inkscape:window-height="1026"
     id="namedview14"
     showgrid="true"
     inkscape:zoom="19.873684"
     inkscape:cx="2.2790247"
     inkscape:cy="8.9333149"
     inkscape:window-x="0"
     inkscape:window-y="24"
     inkscape:window-maximized="1"
     inkscape:current-layer="svg2">
    <inkscape:grid
       type="xygrid"
       id="grid4146" />
  </sodipodi:namedview>
  <path
     style="fill:none;stroke:#e08dc9;stroke-width:0.80000001;stroke-linecap:round;stroke-linejoin:round;stroke-miterlimit:4;stroke-dasharray:none"
     d="m 2.4298707,3.6 7.9402573,0 C 10.607297,3.6 10.8,3.7838383 10.8,4.0112796 l 0,4.7786189 C 10.8,9.016162 10.607297,9.2 10.370128,9.2 l -7.9402573,0 C 2.1927006,9.2 1.9999999,9.016162 1.9999999,8.7898985 l 0,-4.7786189 C 1.9999999,3.7838383 2.1927006,3.6 2.4298707,3.6 Z"
     id="path4"
     inkscape:connector-curvature="0" />
  <path
     style="fill:#e08dc9"
     inkscape:connector-curvature="0"
     id="path8"
     d="m 3.0672279,2.8 1.0655438,0 C 4.2809823,2.8 4.4,2.9785261 4.4,3.2008423 4.4,3.4214734 4.2809823,3.6 4.1327717,3.6 l -1.0655438,0 C 2.9190174,3.6 2.8,3.4214734 2.8,3.2008423 2.8,2.9785261 2.9190174,2.8 3.0672279,2.8 Z" />
  <path
     style="fill:#e08dc9"
     inkscape:connector-curvature="0"
     id="path10"
     d="m 9.4674151,4.4 0.266292,0 C 9.8808981,4.4 10,4.520056 10,4.6670407 L 10,4.934081 C 10,5.0810655 9.8808981,5.2 9.7337071,5.2 l -0.266292,0 c -0.148314,0 -0.267415,-0.1189345 -0.267415,-0.265919 l 0,-0.2670403 C 9.2000001,4.520056 9.3191011,4.4 9.4674151,4.4 Z" />
  <path
     style="fill:none;stroke:#e08dc9;stroke-width:0.80000001;stroke-miterlimit:4;stroke-dasharray:none"
     d="m 7.9999999,6.4000004 c 0,0.8839376 -0.7160625,1.5999995 -1.6,1.5999995 -0.883938,0 -1.5999998,-0.7160619 -1.5999998,-1.5999995 0,-0.8839379 0.7160618,-1.6000003 1.5999998,-1.6000003 0.8839375,0 1.6,0.7160625 1.6,1.6000003 z"
     id="path12"
     inkscape:connector-curvature="0" />
</svg>

<svg xmlns="http://www.w3.org/2000/svg" width="16" height="16" viewBox="0 0 12.8 12.8">
 <path d="m 2.43 3.6 7.94 0 c 0.237 0 0.43 0.184 0.43 0.411 l 0 4.779 c 0 0.226 -0.193 0.41 -0.43 0.41 l -7.94 0 c -0.237 0 -0.43 -0.184 -0.43 -0.41 l 0 -4.779 c 0 -0.227 0.193 -0.411 0.43 -0.411" style="stroke-dasharray:none;fill:none;stroke-miterlimit:4;stroke:#e08dc9;stroke-linecap:round;stroke-linejoin:round;stroke-width:0.8"/>
 <path d="m 3.067 2.8 1.066 0 c 0.148 0 0.267 0.179 0.267 0.401 0 0.221 -0.119 0.399 -0.267 0.399 l -1.066 0 c -0.148 0 -0.267 -0.179 -0.267 -0.399 0 -0.222 0.119 -0.401 0.267 -0.401" style="fill:#e08dc9"/>
 <path d="m 9.467 4.4 0.266 0 c 0.147 0 0.266 0.12 0.266 0.267 l 0 0.267 c 0 0.147 -0.119 0.266 -0.266 0.266 l -0.266 0 c -0.148 0 -0.267 -0.119 -0.267 -0.266 l 0 -0.267 c 0 -0.147 0.119 -0.267 0.267 -0.267" style="fill:#e08dc9"/>
 <path d="m 8 6.4 c 0 0.884 -0.716 1.6 -1.6 1.6 -0.884 0 -1.6 -0.716 -1.6 -1.6 0 -0.884 0.716 -1.6 1.6 -1.6 0.884 0 1.6 0.716 1.6 1.6 z" style="stroke-dasharray:none;fill:none;stroke-miterlimit:4;stroke:#e08dc9;stroke-width:0.8"/>
</svg>
